assets/svg/1F407.svg

<svg xmlns="http://www.w3.org/2000/svg" viewBox="0 0 64 64" enable-background="new 0 0 64 64"><g fill="#698a98"><path d="m52.668 52.25c3.221 1.236 5.935.526 8.01-.325 5.535-2.273 1.196-7.916 1.151-7.953-2.817-4.01-5.01-6.708-12.589 3.534-1.209 1.627.313 3.546 3.43 4.744"/><path d="m12.497 15.602c-2.682 4.799-3.417 9.93-.333 12.181 3.076 2.248 14.653-17.877 15.249-18.687 1.813-2.484 1.37-5.887-.979-7.61-2.361-1.715-5.737-1.092-7.547 1.392-1.34 1.838-2.927 6.526-6.39 12.724"/></g><path fill="#de374b" d="m14.36 15.489c-2.13 3.747-2.792 7.711-.518 9.375 2.278 1.662 11.458-14.07 11.922-14.704 1.427-1.952 1.168-4.557-.572-5.832-1.744-1.269-4.31-.716-5.733 1.236-1.048 1.441-2.348 5.082-5.099 9.925"/><g fill="#7094a6"><path d="m14.195 53.943c0 5.233 9.541 9.465 21.323 9.465 11.783 0 21.324-4.231 21.324-9.465 0-5.228-9.541-18.12-21.324-18.12-11.782 0-21.323 12.893-21.323 18.12"/><path d="m7.652 43.23c6.173 2.368 11.379 1.012 15.352-.619 10.602-4.361 2.291-15.173 2.2-15.248-5.396-7.676-9.599-12.852-24.12 6.776-2.314 3.12.597 6.797 6.568 9.09"/><path d="m22.86 14.878c-3.705 4.875-5.19 10.58-1.892 13.861 3.298 3.275 19.227-17.1 20.02-17.89 2.414-2.429 2.319-6.424-.193-8.933-2.529-2.502-6.526-2.564-8.937-.136-1.78 1.797-4.202 6.8-8.994 13.1"/></g><path fill="#de374b" d="m24.505 15.845c-2.953 3.884-4.137 8.427-1.509 11.04 2.628 2.609 15.315-13.623 15.944-14.252 1.925-1.935 1.851-5.118-.156-7.115-2.01-1.995-5.198-2.044-7.119-.109-1.414 1.429-3.347 5.417-7.16 10.434"/><ellipse fill="#25333a" cx="14.196" cy="32.503" rx="2.681" ry="3.253"/><g fill="#7094a6"><path d="m22 58.33c-1.772-1.938-4.516-2.753-6.831-3.238-6.181-1.294-6.625 3.14-6.617 3.179-.526 3.039-1.324 6.695 12.214 5.18 2.155-.239 2.953-3.25 1.234-5.121"/><path d="m32.09 57.37c-2.093-1.927-5.128-2.552-7.666-2.864-6.786-.823-6.855 3.997-6.843 4.04-.288 3.327-.81 7.343 13.649 4.462 2.299-.452 2.883-3.775.86-5.634"/><path d="m48.638 58.33c-1.772-1.938-4.516-2.753-6.831-3.238-6.181-1.294-6.625 3.14-6.616 3.179-.526 3.039-1.324 6.695 12.214 5.18 2.155-.239 2.952-3.25 1.233-5.121"/><path d="m58.825 56.46c-1.543-2.544-3.932-3.578-5.947-4.185-5.388-1.608-5.786 4.285-5.782 4.337-.469 4.047-1.176 8.916 10.635 6.668 1.879-.351 2.586-4.365 1.094-6.82"/></g></svg>

<?xml version="1.0" encoding="UTF-8" standalone="no"?>
<!-- Generator: Adobe Illustrator 16.0.0, SVG Export Plug-In . SVG Version: 6.00 Build 0)  -->

<svg
   xmlns:dc="http://purl.org/dc/elements/1.1/"
   xmlns:cc="http://creativecommons.org/ns#"
   xmlns:rdf="http://www.w3.org/1999/02/22-rdf-syntax-ns#"
   xmlns:svg="http://www.w3.org/2000/svg"
   xmlns="http://www.w3.org/2000/svg"
   xmlns:sodipodi="http://sodipodi.sourceforge.net/DTD/sodipodi-0.dtd"
   xmlns:inkscape="http://www.inkscape.org/namespaces/inkscape"
   version="1.1"
   id="Layer_1"
   x="0px"
   y="0px"
   width="64px"
   height="64px"
   viewBox="0 0 64 64"
   enable-background="new 0 0 64 64"
   xml:space="preserve"
   inkscape:version="0.48.5 r10040"
   sodipodi:docname="1F407.svg"
   inkscape:export-filename="D:\TESTINGEMOJI\SVGTEST\1F407.png"
   inkscape:export-xdpi="90"
   inkscape:export-ydpi="90"><metadata
   id="metadata5784"><rdf:RDF><cc:Work
       rdf:about=""><dc:format>image/svg+xml</dc:format><dc:type
         rdf:resource="http://purl.org/dc/dcmitype/StillImage" /><dc:title></dc:title></cc:Work></rdf:RDF></metadata><defs
   id="defs5782" /><sodipodi:namedview
   pagecolor="#ffffff"
   bordercolor="#666666"
   borderopacity="1"
   objecttolerance="10"
   gridtolerance="10"
   guidetolerance="10"
   inkscape:pageopacity="0"
   inkscape:pageshadow="2"
   inkscape:window-width="640"
   inkscape:window-height="480"
   id="namedview5780"
   showgrid="false"
   inkscape:zoom="3.6875"
   inkscape:cx="32"
   inkscape:cy="32"
   inkscape:window-x="350"
   inkscape:window-y="254"
   inkscape:window-maximized="0"
   inkscape:current-layer="Layer_1" />
<g
   id="g5754">
	<path
   fill="#698A98"
   d="M52.668,52.253c3.221,1.236,5.935,0.526,8.008-0.325c5.535-2.273,1.196-7.916,1.151-7.953   c-2.817-4.008-5.014-6.708-12.589,3.534C48.029,49.136,49.551,51.055,52.668,52.253z"
   id="path5756" />
	<path
   fill="#698A98"
   d="M12.497,15.602c-2.682,4.799-3.417,9.93-0.333,12.181C15.24,30.031,26.817,9.906,27.413,9.096   c1.813-2.484,1.37-5.887-0.979-7.61c-2.361-1.715-5.737-1.092-7.547,1.392C17.547,4.716,15.96,9.404,12.497,15.602z"
   id="path5758" />
	<path
   fill="#DE374B"
   d="M14.36,15.489c-2.13,3.747-2.792,7.711-0.518,9.375c2.278,1.662,11.458-14.069,11.922-14.704   c1.427-1.952,1.168-4.557-0.572-5.832c-1.744-1.269-4.31-0.716-5.733,1.236C18.411,7.005,17.111,10.646,14.36,15.489z"
   id="path5760" />
	<path
   fill="#7094A6"
   d="M14.195,53.943c0,5.233,9.541,9.465,21.323,9.465c11.783,0,21.324-4.231,21.324-9.465   c0-5.228-9.541-18.12-21.324-18.12C23.736,35.823,14.195,48.716,14.195,53.943z"
   id="path5762" />
	<path
   fill="#7094A6"
   d="M7.652,43.23c6.173,2.368,11.379,1.012,15.352-0.619c10.602-4.361,2.291-15.173,2.2-15.248   c-5.396-7.676-9.599-12.852-24.12,6.776C-1.23,37.259,1.681,40.936,7.652,43.23z"
   id="path5764" />
	<path
   fill="#7094A6"
   d="M22.86,14.878c-3.705,4.875-5.19,10.58-1.892,13.861c3.298,3.275,19.227-17.1,20.016-17.89   c2.414-2.429,2.319-6.424-0.193-8.933c-2.529-2.502-6.526-2.564-8.937-0.136C30.074,3.577,27.652,8.58,22.86,14.878z"
   id="path5766" />
	<path
   fill="#DE374B"
   d="M24.505,15.845c-2.953,3.884-4.137,8.427-1.509,11.042c2.628,2.609,15.315-13.623,15.944-14.252   c1.925-1.935,1.851-5.118-0.156-7.115c-2.011-1.995-5.198-2.044-7.119-0.109C30.251,6.84,28.318,10.828,24.505,15.845z"
   id="path5768" />
	<ellipse
   fill="#25333A"
   cx="14.196"
   cy="32.503"
   rx="2.681"
   ry="3.253"
   id="ellipse5770" />
	<path
   fill="#7094A6"
   d="M22.005,58.327c-1.772-1.938-4.516-2.753-6.831-3.238c-6.181-1.294-6.625,3.14-6.617,3.179   c-0.526,3.039-1.324,6.695,12.214,5.18C22.926,63.209,23.724,60.198,22.005,58.327z"
   id="path5772" />
	<path
   fill="#7094A6"
   d="M32.089,57.365c-2.093-1.927-5.128-2.552-7.666-2.864c-6.786-0.823-6.855,3.997-6.843,4.036   c-0.288,3.327-0.81,7.343,13.649,4.462C33.528,62.547,34.112,59.224,32.089,57.365z"
   id="path5774" />
	<path
   fill="#7094A6"
   d="M48.638,58.327c-1.772-1.938-4.516-2.753-6.831-3.238c-6.181-1.294-6.625,3.14-6.616,3.179   c-0.526,3.039-1.324,6.695,12.214,5.18C49.56,63.209,50.357,60.198,48.638,58.327z"
   id="path5776" />
	<path
   fill="#7094A6"
   d="M58.825,56.456c-1.543-2.544-3.932-3.578-5.947-4.185c-5.388-1.608-5.786,4.285-5.782,4.337   c-0.469,4.047-1.176,8.916,10.635,6.668C59.61,62.925,60.317,58.911,58.825,56.456z"
   id="path5778" />
</g>
</svg>
